X: 7338
T: Cliffs Of Glencolumbkille, The
R: reel
M: 4/4
K: Dmajor
|:ADFD FAdB|ADFA B<EEB|ADFD FAAA|1 (3ddd fd efdB:|2 (3ddd fd efdA|
df~f2 dfaf|df~f2 edBA|df~f2 dfaf|{a}fefd edBA|
df~f2 dfaf|defd e2ea|a2af abaf|(3ddd fd efdB|

